svgs/regular/function.svg

<svg xmlns="http://www.w3.org/2000/svg" viewBox="0 0 640 512"><!--! Font Awesome Pro 6.0.0-alpha3 by @fontawesome - https://fontawesome.com License - https://fontawesome.com/license (Commercial License) --><path d="M200 0L160 .0098c-48.6 0-88 39.65-88 88.58v96.64h-48c-13.25 0-24 10.82-24 24.16C0 222.7 10.75 233.6 24 233.6h48v161.1c0 22.24-17.91 40.27-40 40.27H24c-13.25 0-24 10.82-24 24.16s10.75 24.16 24 24.16H32c48.6 0 88-39.66 88-88.59V233.6h48c13.25 0 24-10.82 24-24.16c0-13.34-10.75-24.16-24-24.16h-48V88.59c0-22.24 17.91-40.27 40-40.27h40c13.25 0 24-10.82 24-24.16S213.3 0 200 0zM311.5 137.4C300.1 128.7 284.3 131.4 276.5 143.6C242.5 196.5 224 258.1 224 322.1c0 63.15 18.48 125.6 52.51 178.6c7.781 12.11 23.56 14.88 34.99 6.189c9.865-7.498 12.28-21.35 5.568-31.8C287.9 429.7 272 376.2 272 322.1c0-54.02 15.91-107.6 45.08-152.1C323.8 158.7 321.4 144.9 311.5 137.4zM587.5 143.6c-7.781-12.11-23.56-14.88-34.99-6.189c-9.865 7.498-12.28 21.35-5.568 31.8C576.1 214.6 592 268.1 592 322.1c0 54.02-15.91 107.6-45.08 152.1c-6.713 10.45-4.297 24.3 5.568 31.8c11.44 8.691 27.21 5.922 34.99-6.189C621.5 447.8 640 385.3 640 322.1C640 258.1 621.5 196.5 587.5 143.6zM501.1 251.7c-9.074-9.137-23.93-9.137-32.1 0L432 288.9l-37-37.25c-9.074-9.137-23.93-9.137-33 0c-9.074 9.135-9.074 24.09 0 33.22l37 37.25l-37 37.25c-9.074 9.135-9.074 24.09 0 33.22c9.074 9.137 23.93 9.137 33 0L432 355.4l37 37.25c9.074 9.137 23.93 9.137 32.1 0c9.074-9.135 9.074-24.09 0-33.22L465 322.1l36.1-37.25C511.1 275.8 511.1 260.8 501.1 251.7z"/></svg>

<svg xmlns="http://www.w3.org/2000/svg" viewBox="0 0 640 512"><!-- Font Awesome Pro 6.0.0-alpha2 by @fontawesome - https://fontawesome.com License - https://fontawesome.com/license (Commercial License) --><path d="M200 0H160C111.398 0 72 39.662 72 88.59V185.234H24C10.746 185.234 0 196.051 0 209.395C0 222.74 10.746 233.557 24 233.557H72V394.631C72 416.871 54.092 434.9 32 434.9H24C10.746 434.9 0 445.717 0 459.061S10.746 483.223 24 483.223H32C80.602 483.223 120 443.559 120 394.631V233.557H168C181.254 233.557 192 222.74 192 209.395C192 196.051 181.254 185.234 168 185.234H120V88.59C120 66.352 137.908 48.322 160 48.322H200C213.254 48.322 224 37.504 224 24.16S213.254 0 200 0ZM311.508 137.361C300.072 128.67 284.295 131.439 276.514 143.551C242.477 196.531 224 258.996 224 322.148C224 385.299 242.477 447.764 276.514 500.744C284.295 512.855 300.072 515.625 311.508 506.934C321.373 499.436 323.789 485.582 317.076 475.133C287.912 429.73 272 376.17 272 322.148C272 268.125 287.912 214.564 317.076 169.162C323.789 158.713 321.373 144.859 311.508 137.361ZM587.486 143.551C579.705 131.439 563.928 128.67 552.492 137.361C542.627 144.859 540.211 158.713 546.924 169.162C576.088 214.564 592 268.125 592 322.148C592 376.17 576.088 429.73 546.924 475.133C540.211 485.582 542.627 499.436 552.492 506.934C563.928 515.625 579.705 512.855 587.486 500.744C621.523 447.764 640 385.299 640 322.148C640 258.996 621.523 196.531 587.486 143.551ZM502 251.678C492.926 242.541 478.074 242.541 469 251.678L432 288.926L395 251.678C385.926 242.541 371.074 242.541 362 251.678C352.926 260.812 352.926 275.764 362 284.898L399 322.148L362 359.396C352.926 368.531 352.926 383.482 362 392.617C371.074 401.754 385.926 401.754 395 392.617L432 355.369L469 392.617C478.074 401.754 492.926 401.754 502 392.617C511.074 383.482 511.074 368.531 502 359.396L465 322.148L502 284.898C511.074 275.764 511.074 260.812 502 251.678Z"/></svg>
